images/icon-instagram.svg

<svg width="22" height="22" viewBox="0 0 22 22" fill="none" xmlns="http://www.w3.org/2000/svg">
<path d="M16.6097 4.29039C15.9141 4.29039 15.3497 4.85411 15.3497 5.54995C15.3497 6.24558 15.9141 6.80995 16.6097 6.80995C17.3053 6.80995 17.8697 6.24558 17.8697 5.54995C17.8697 4.85433 17.3053 4.29039 16.6097 4.29039Z" fill="#9E9DAD"/>
<path fill-rule="evenodd" clip-rule="evenodd" d="M5.61268 11.1548C5.61268 8.17699 8.0269 5.76269 11.0046 5.76258C13.9825 5.76258 16.3962 8.17692 16.3962 11.1548C16.3962 14.1326 13.9827 16.5459 11.0049 16.5459C8.02702 16.5459 5.61268 14.1326 5.61268 11.1548ZM14.5047 11.1548C14.5047 9.22171 12.9376 7.65481 11.0047 7.65481C9.07163 7.65481 7.50473 9.22171 7.50473 11.1548C7.50473 13.0877 9.07163 14.6548 11.0047 14.6548C12.9376 14.6548 14.5047 13.0877 14.5047 11.1548Z" fill="#9E9DAD"/>
<path fill-rule="evenodd" clip-rule="evenodd" d="M11.0048 0.654785C8.15316 0.654785 7.79528 0.667254 6.67528 0.718223C5.55747 0.76941 4.79447 0.946379 4.12684 1.20604C3.43625 1.47422 2.85044 1.83297 2.26681 2.41682C1.68275 3.00044 1.324 3.58625 1.05494 4.27663C0.794625 4.94447 0.617437 5.70769 0.567125 6.82507C0.517031 7.94507 0.503906 8.30316 0.503906 11.1548C0.503906 14.0064 0.516594 14.3632 0.567344 15.4832C0.61875 16.601 0.795719 17.364 1.05516 18.0316C1.32356 18.7222 1.68231 19.308 2.26616 19.8917C2.84956 20.4757 3.43537 20.8353 4.12553 21.1035C4.79359 21.3632 5.55681 21.5402 6.67441 21.5913C7.79441 21.6423 8.15206 21.6548 11.0035 21.6548C13.8553 21.6548 14.2121 21.6423 15.3321 21.5913C16.4499 21.5402 17.2138 21.3632 17.8818 21.1035C18.5722 20.8353 19.1572 20.4757 19.7406 19.8917C20.3246 19.308 20.6834 18.7222 20.9524 18.0318C21.2106 17.364 21.3877 16.6008 21.4402 15.4834C21.4906 14.3634 21.5037 14.0064 21.5037 11.1548C21.5037 8.30316 21.4906 7.94528 21.4402 6.82528C21.3877 5.70747 21.2106 4.94447 20.9524 4.27685C20.6834 3.58625 20.3246 3.00044 19.7406 2.41682C19.1565 1.83275 18.5724 1.474 17.8812 1.20604C17.2118 0.946379 16.4484 0.76941 15.3306 0.718223C14.2106 0.667254 13.854 0.654785 11.0015 0.654785H11.0048ZM10.0629 2.54695C10.2458 2.54667 10.4426 2.54676 10.6549 2.54685L11.0049 2.54695C13.8084 2.54695 14.1406 2.55702 15.2477 2.60733C16.2715 2.65414 16.8271 2.8252 17.1972 2.96892C17.6872 3.15923 18.0366 3.38673 18.4039 3.75423C18.7714 4.12173 18.9989 4.47173 19.1896 4.96173C19.3333 5.33142 19.5046 5.88705 19.5512 6.9108C19.6015 8.01767 19.6125 8.35017 19.6125 11.1524C19.6125 13.9545 19.6015 14.287 19.5512 15.3939C19.5044 16.4177 19.3333 16.9733 19.1896 17.343C18.9993 17.833 18.7714 18.1819 18.4039 18.5492C18.0364 18.9167 17.6875 19.1442 17.1972 19.3345C16.8276 19.4789 16.2715 19.6495 15.2477 19.6963C14.1409 19.7466 13.8084 19.7575 11.0049 19.7575C8.20115 19.7575 7.86887 19.7466 6.76199 19.6963C5.73824 19.649 5.18262 19.478 4.81227 19.3343C4.32227 19.144 3.97227 18.9165 3.60477 18.549C3.23727 18.1815 3.00977 17.8323 2.81902 17.3421C2.6753 16.9724 2.50402 16.4168 2.45743 15.393C2.40712 14.2862 2.39705 13.9537 2.39705 11.1497C2.39705 8.3458 2.40712 8.01505 2.45743 6.90817C2.50424 5.88442 2.6753 5.3288 2.81902 4.95867C3.00934 4.46867 3.23727 4.11867 3.60477 3.75117C3.97227 3.38367 4.32227 3.15617 4.81227 2.96542C5.1824 2.82105 5.73824 2.65042 6.76199 2.60339C7.73062 2.55964 8.10599 2.54652 10.0629 2.54433V2.54695Z" fill="#9E9DAD"/>
</svg>

<svg xmlns="http://www.w3.org/2000/svg" width="22" height="22" fill="none"><path fill="#9E9DAD" d="M16.61 4.29a1.26 1.26 0 1 0 0 2.52 1.26 1.26 0 0 0 0-2.52Z"/><path fill="#9E9DAD" fill-rule="evenodd" d="M5.613 11.155a5.392 5.392 0 1 1 10.784 0 5.392 5.392 0 0 1-10.784 0Zm8.892 0a3.5 3.5 0 1 0-7 0 3.5 3.5 0 0 0 7 0Z" clip-rule="evenodd"/><path fill="#9E9DAD" fill-rule="evenodd" d="M11.005.655c-2.852 0-3.21.012-4.33.063-1.118.051-1.88.228-2.548.488a5.141 5.141 0 0 0-1.86 1.21 5.154 5.154 0 0 0-1.212 1.86c-.26.668-.438 1.432-.488 2.55-.05 1.12-.063 1.477-.063 4.329 0 2.851.013 3.208.063 4.328.052 1.118.229 1.881.488 2.549.269.69.627 1.276 1.211 1.86.584.584 1.17.943 1.86 1.212.668.26 1.43.436 2.548.487 1.12.051 1.478.064 4.33.064 2.851 0 3.208-.013 4.328-.064 1.118-.05 1.882-.228 2.55-.488a5.138 5.138 0 0 0 1.859-1.211 5.155 5.155 0 0 0 1.211-1.86c.259-.668.436-1.431.488-2.549.05-1.12.064-1.477.064-4.328 0-2.852-.013-3.21-.064-4.33-.052-1.118-.23-1.88-.488-2.548a5.153 5.153 0 0 0-1.211-1.86 5.132 5.132 0 0 0-1.86-1.211c-.67-.26-1.433-.437-2.55-.488C14.21.668 13.854.655 11 .655h.004Zm-.942 1.892h.942c2.803 0 3.136.01 4.243.06 1.024.047 1.58.218 1.95.362.49.19.839.418 1.206.785.367.368.595.718.786 1.208.143.37.315.925.361 1.949.05 1.107.062 1.44.062 4.241 0 2.803-.011 3.135-.062 4.242-.047 1.024-.218 1.58-.361 1.949-.19.49-.419.839-.786 1.206a3.247 3.247 0 0 1-1.207.785c-.37.145-.925.316-1.95.362-1.106.05-1.439.061-4.242.061-2.804 0-3.136-.01-4.243-.06-1.024-.048-1.58-.219-1.95-.363-.49-.19-.84-.418-1.207-.785a3.255 3.255 0 0 1-.786-1.207c-.144-.37-.315-.925-.362-1.949-.05-1.107-.06-1.44-.06-4.243 0-2.804.01-3.135.06-4.242.047-1.024.218-1.58.362-1.95.19-.49.418-.84.786-1.207a3.259 3.259 0 0 1 1.207-.786c.37-.144.926-.315 1.95-.362.969-.043 1.344-.056 3.3-.059v.003Z" clip-rule="evenodd"/></svg>
